!!!OTL: ES WAR EINMAL EIN BRAVER HUSAR
!!!ARE: Europa, Mitteleuropa, Deutschland, Oberlahnkreis; Kreis Wetzlar
!!!SCT: E0093C
!!!YEM: Copyright 1995, estate of Helmut Schaffrath.
**kern
*ICvox
*Ivox
*M3/4
*k[b-e-a-]
*E-:
{8e-
8e-
8cc
=1
4b-
8g
8b-
8cc
8cc
=2
4b-
8g}
{8ee-
8b-
8g
=3
4g
8f
8b-
8.b-
16a-
=4
4a-
8g}
{8e-
8e-
8cc
=5
4b-
8g
8b-
8cc
8cc
=6
4b-
8g}
{8ee-
8b-
8g
=7
4g
8f
8b-
8.b-
16a-
=8
4g
8r}
==
!!!AGN: erzaehlendes Volks - Lied, Sage, Liebe, Leid, Tod, Ballade ?
!!!ONB: ESAC (Essen Associative Code) Database: ERK1
!!!AMT: simple triple
!!!AIN: vox
!!!EED: Helmut Schaffrath
!!!EEV: 1.0
*-
